X:1669
T:Robin Hood and the Pedlar
F:http://www.vwml.org/record/CJS2/10/1669
S:Job Francis of Shipley, Sussex
Z:transcribed by Alice Baillie
M:3/2
L:1/4
K:G
G2 | G d d2 (c A) | G =F  G2 B> c | d e (=f> e) d B | 
w:Twas of a ped-lar_ stout & strong and as fine a ped-_lar as
c d/ e/ d2 c2 | d d g2 (=f d) | c (A/G/) =F2 G> A | 
w:e-ver was seen He threw his pack all_ on his_ back and a- 
B (B/c/) d2 (c/B/) A | G =F/ F/ G2 || 
w:way went_ ped-lar_ right o-ver the lea

